images/icons/v2/trash-outline-24.svg

<svg height="24" viewBox="0 0 24 24" width="24" xmlns="http://www.w3.org/2000/svg"><path d="m22 4.5h-5.65a4.45 4.45 0 0 0 -8.7 0h-5.65v1.5h1.5l1.36 14a2.25 2.25 0 0 0 2.24 2h9.8a2.25 2.25 0 0 0 2.24-2l1.36-14h1.5zm-10-2a3 3 0 0 1 2.82 2h-5.64a3 3 0 0 1 2.82-2zm5.65 17.33a.76.76 0 0 1 -.75.67h-9.8a.76.76 0 0 1 -.75-.67l-1.35-13.83h14zm-6.4-1.83v-10h1.5v10zm3.25 0 .5-10h1.5l-.5 10zm-6.5 0-.5-10h1.5l.5 10z"/></svg>

<svg xmlns="http://www.w3.org/2000/svg" width="24" height="24" viewBox="0 0 24 24"><title>trash-outline-24</title><path d="M22,4.5H16.35a4.45,4.45,0,0,0-8.7,0H2V6H3.5L4.86,20A2.25,2.25,0,0,0,7.1,22h9.8a2.25,2.25,0,0,0,2.24-2L20.5,6H22Zm-10-2a3,3,0,0,1,2.82,2H9.18A3,3,0,0,1,12,2.5Zm5.65,17.33a.76.76,0,0,1-.75.67H7.1a.76.76,0,0,1-.75-.67L5,6H19ZM11.25,18V8h1.5V18Zm3.25,0L15,8h1.5L16,18ZM8,18,7.5,8H9l.5,10Z"/></svg>
